src/symbolic/devices/uninterruptible-power-supply-symbolic.svg

<svg xmlns="http://www.w3.org/2000/svg" width="16" height="16" version="1.1">
 <path style="fill:#444444" d="M 4,0 C 4,0 2,0 2,2 V 16 H 14 V 2 C 14,0 12,0 12,0 Z M 8,2 V 5 H 11 L 8,10 V 7 H 5 Z M 5,12 C 5.55,12 6,12.45 6,13 6,13.55 5.55,14 5,14 4.45,14 4,13.55 4,13 4,12.45 4.45,12 5,12 Z"/>
</svg>

<svg xmlns="http://www.w3.org/2000/svg" width="16" height="16"><path d="M4 0S2 0 2 2v14h12V2c0-2-2-2-2-2zm4 2v3h3l-3 5V7H5zM5 12c.55 0 1 .45 1 1s-.45 1-1 1-1-.45-1-1 .45-1 1-1z" fill="#444"/></svg>
